svg/weather/heavy_snow_fill.svg

<?xml version="1.0" encoding="UTF-8"?>
<svg width="24px" height="24px" viewBox="0 0 24 24" version="1.1" xmlns="http://www.w3.org/2000/svg" xmlns:xlink="http://www.w3.org/1999/xlink">
    <title>heavy_snow_fill</title>
    <g id="Icon" stroke="none" stroke-width="1" fill="none" fill-rule="evenodd">
        <g id="Weather" transform="translate(-433.000000, -144.000000)" fill-rule="nonzero">
            <g id="heavy_snow_fill" transform="translate(433.000000, 144.000000)">
                <path d="M24,0 L24,24 L0,24 L0,0 L24,0 Z M12.5935,23.2578 L12.5819,23.2595 L12.5109,23.295 L12.4919,23.2987 L12.4767,23.295 L12.4057,23.2595 C12.3958,23.2564 12.387,23.259 12.3821,23.2649 L12.378,23.2758 L12.3609,23.7031 L12.3659,23.7235 L12.3769,23.7357 L12.4805,23.8097 L12.4953,23.8136 L12.5071,23.8097 L12.6107,23.7357 L12.6233,23.7197 L12.6267,23.7031 L12.6096,23.2758 C12.6076,23.2657 12.601,23.2593 12.5935,23.2578 Z M12.8584,23.1453 L12.8445,23.1473 L12.6598,23.2397 L12.6499,23.2499 L12.6472,23.2611 L12.6651,23.6906 L12.6699,23.7034 L12.6784,23.7105 L12.8793,23.8032 C12.8914,23.8069 12.9022,23.803 12.9078,23.7952 L12.9118,23.7812 L12.8777,23.1665 C12.8753,23.1546 12.8674,23.147 12.8584,23.1453 Z M12.143,23.1473 C12.1332,23.1424 12.1222,23.1453 12.1156,23.1526 L12.1099,23.1665 L12.0758,23.7812 C12.0751,23.7927 12.0828,23.8019 12.0926,23.8046 L12.1083,23.8032 L12.3092,23.7105 L12.3186,23.7024 L12.3225,23.6906 L12.3404,23.2611 L12.3372,23.2485 L12.3278,23.2397 L12.143,23.1473 Z" id="MingCute"></path>
                <path d="M8.00003,16 C8.55232,16 9.00003,16.4477 9.00003,17 L9.00003,17.268 L9.23211,17.134 C9.71041,16.8578 10.322,17.0217 10.5981,17.5 C10.8743,17.9783 10.7104,18.5899 10.2321,18.866 L10.0001,19 L10.2321,19.1339 C10.7104,19.4101 10.8743,20.0217 10.5981,20.5 C10.322,20.9783 9.71038,21.1421 9.23209,20.866 L9.00003,20.732 L9.00003,21 C9.00003,21.5523 8.55232,22 8.00003,22 C7.44775,22 7.00003,21.5523 7.00003,21 L7.00003,20.7321 L6.76801,20.866 C6.28972,21.1422 5.67813,20.9783 5.40198,20.5 C5.12583,20.0217 5.28969,19.4101 5.76798,19.134 L6.00006,19 L5.76799,18.866 C5.2897,18.5899 5.12582,17.9783 5.40196,17.5 C5.67811,17.0217 6.2897,16.8578 6.76799,17.1339 L7.00003,17.2679 L7.00003,17 C7.00003,16.4477 7.44775,16 8.00003,16 Z M16,16 C16.5523,16 17,16.4477 17,17 L17,17.268 L17.2321,17.134 C17.7104,16.8578 18.322,17.0217 18.5981,17.5 C18.8743,17.9783 18.7104,18.5899 18.2321,18.866 L18.0001,19 L18.2321,19.1339 C18.7104,19.4101 18.8743,20.0217 18.5981,20.5 C18.322,20.9783 17.7104,21.1421 17.2321,20.866 L17,20.732 L17,21 C17,21.5523 16.5523,22 16,22 C15.4477,22 15,21.5523 15,21 L15,20.7321 L14.768,20.866 C14.2897,21.1422 13.6781,20.9783 13.402,20.5 C13.1258,20.0217 13.2897,19.4101 13.768,19.134 L14.0001,19 L13.768,18.866 C13.2897,18.5899 13.1258,17.9783 13.402,17.5 C13.6781,17.0217 14.2897,16.8578 14.768,17.1339 L15,17.2679 L15,17 C15,16.4477 15.4477,16 16,16 Z M11.5,2 C14.2856,2 16.66,3.75154 17.5856,6.21198 C20.13,6.90766 22,9.23462 22,12 C22,13.6804 21.3092,15.1994 20.1962,16.2886 C19.7327,15.6196 19.0354,15.1912 18.2803,15.0505 C17.8821,14.5852 17.3441,14.2433 16.7313,14.0898 C16.7421,13.7179 16.6834,13.3481 16.5605,13 C16.8422,12.202 16.7864,11.2904 16.3302,10.5001 C15.8739,9.70968 15.1122,9.2055 14.2803,9.05046 C13.73,8.4075 12.9126,8 12,8 C11.0874,8 10.27,8.40748 9.71974,9.05043 C8.8878,9.20546 8.12618,9.70963 7.66987,10.5 C7.21356,11.2903 7.15775,12.202 7.43947,13 C7.31657,13.3481 7.25791,13.7179 7.26871,14.0898 C6.65594,14.2432 6.11789,14.5852 5.71974,15.0504 C4.8878,15.2055 4.12618,15.7096 3.66987,16.5 L3.58682,16.6538 C2.61037,15.7413 2,14.4419 2,13 C2,10.9486 3.23468,9.18749 5.00053,8.41614 C5.04543,4.86494 7.93814,2 11.5,2 Z M12,10 C12.5523,10 13,10.4477 13,11 L13,11.268 L13.2321,11.134 C13.7104,10.8578 14.322,11.0217 14.5981,11.5 C14.8743,11.9783 14.7104,12.5899 14.2321,12.866 L14.0001,13 L14.2321,13.1339 C14.7104,13.4101 14.8743,14.0217 14.5981,14.5 C14.322,14.9783 13.7104,15.1421 13.2321,14.866 L13,14.732 L13,15 C13,15.5523 12.5523,16 12,16 C11.4477,16 11,15.5523 11,15 L11,14.7321 L10.768,14.866 C10.2897,15.1422 9.67813,14.9783 9.40198,14.5 C9.12583,14.0217 9.28969,13.4101 9.76798,13.134 L10.0001,13 L9.76799,12.866 C9.2897,12.5899 9.12582,11.9783 9.40196,11.5 C9.67811,11.0217 10.2897,10.8578 10.768,11.1339 L11,11.2679 L11,11 C11,10.4477 11.4477,10 12,10 Z" id="形状" fill="#09244B"></path>
            </g>
        </g>
    </g>
</svg>

<svg xmlns="http://www.w3.org/2000/svg" width="24" height="24"><g fill="none" fill-rule="nonzero"><path d="M24 0v24H0V0h24ZM12.594 23.258l-.012.002-.071.035-.02.004-.014-.004-.071-.036c-.01-.003-.019 0-.024.006l-.004.01-.017.428.005.02.01.013.104.074.015.004.012-.004.104-.074.012-.016.004-.017-.017-.427c-.002-.01-.009-.017-.016-.018Zm.264-.113-.014.002-.184.093-.01.01-.003.011.018.43.005.012.008.008.201.092c.012.004.023 0 .029-.008l.004-.014-.034-.614c-.003-.012-.01-.02-.02-.022Zm-.715.002a.023.023 0 0 0-.027.006l-.006.014-.034.614c0 .012.007.02.017.024l.015-.002.201-.093.01-.008.003-.011.018-.43-.003-.012-.01-.01-.184-.092Z"/><path fill="#09244B" d="M8 16a1 1 0 0 1 1 1v.268l.232-.134a1 1 0 1 1 1 1.732L10 19l.232.134a1 1 0 0 1-1 1.732L9 20.732V21a1 1 0 1 1-2 0v-.268l-.232.134a1 1 0 1 1-1-1.732L6 19l-.232-.134a1 1 0 1 1 1-1.732l.232.134V17a1 1 0 0 1 1-1Zm8 0a1 1 0 0 1 1 1v.268l.232-.134a1 1 0 1 1 1 1.732L18 19l.232.134a1 1 0 0 1-1 1.732L17 20.732V21a1 1 0 1 1-2 0v-.268l-.232.134a1 1 0 1 1-1-1.732L14 19l-.232-.134a1 1 0 1 1 1-1.732l.232.134V17a1 1 0 0 1 1-1ZM11.5 2a6.502 6.502 0 0 1 6.086 4.212 6.002 6.002 0 0 1 2.61 10.077 2.994 2.994 0 0 0-1.916-1.239 3 3 0 0 0-1.549-.96 3.013 3.013 0 0 0-.17-1.09 2.993 2.993 0 0 0-.23-2.5 2.993 2.993 0 0 0-2.05-1.45A2.994 2.994 0 0 0 12 8c-.913 0-1.73.407-2.28 1.05a2.993 2.993 0 0 0-2.05 1.45 2.993 2.993 0 0 0-.23 2.5 3.013 3.013 0 0 0-.171 1.09 3 3 0 0 0-1.55.96 2.993 2.993 0 0 0-2.05 1.45l-.082.154A5 5 0 0 1 5 8.416 6.5 6.5 0 0 1 11.5 2Zm.5 8a1 1 0 0 1 1 1v.268l.232-.134a1 1 0 1 1 1 1.732L14 13l.232.134a1 1 0 0 1-1 1.732L13 14.732V15a1 1 0 1 1-2 0v-.268l-.232.134a1 1 0 1 1-1-1.732L10 13l-.232-.134a1 1 0 1 1 1-1.732l.232.134V11a1 1 0 0 1 1-1Z"/></g></svg>
